file/accenture.svg

<svg clip-rule="evenodd" fill-rule="evenodd" stroke-linejoin="round" stroke-miterlimit="1.41421" viewBox="0 0 560 400" xmlns="http://www.w3.org/2000/svg"><g fill-rule="nonzero" transform="matrix(2.08817 0 0 2.08817 105.116 151.45)"><path d="m97.2 6.5 9.4 3.7-9.4 3.5v5l16.1-6.5v-4l-16.1-6.5z" fill="#008fff"/><path d="m78.1 38.5c-.5 3.6-3.5 6.3-8.4 6.3-5.4 0-9.1-3.2-9.1-9.5v-.4c0-6.3 3.9-9.8 9-9.8 4.7 0 8.6 2.7 8.6 8.9v2.2h-12.2c.2 3.4 1.6 4.7 3.9 4.7 1.6.2 3.1-.9 3.3-2.4zm87.1 0c-.6 3.6-3.5 6.3-8.4 6.3-5.4 0-9.1-3.2-9.1-9.5v-.4c0-6.3 3.9-9.8 9-9.8 4.7 0 8.6 2.6 8.6 8.8h-.2v2.4h-12.2c.2 3.4 1.6 4.7 3.9 4.7 1.6.1 3.1-.9 3.5-2.5zm-157.4-7.2h-5c.3-4.2 3.6-6.2 8.1-6.2 4.4 0 7.7 1.9 7.8 6.7v12.6h-5.1v-2.2c-1.2 1.6-3.1 2.6-5.2 2.5-3.4 0-6.2-1.7-6.2-5.5v-.2c0-4.7 4-6.2 8.9-6.2h2.3v-.9c0-1.9-.9-3-2.8-3-1.4-.1-2.7.9-2.8 2.3zm112.2-5.8v12c0 2.2.8 3.2 2.7 3.2 1.7.1 3.2-1.3 3.3-3v-.5l.1-11.7h5.3v18.8h-5.3v-2.8c-1.1 2.1-3.2 3.3-5.5 3.2-3.4 0-5.9-2.1-5.9-6.5v-12.7zm-61.6 11.9c-.3 4.2-3.2 7.3-8.3 7.3-5.2 0-9-3.2-9-9.6v-.2c0-6.4 4-9.8 9-9.8 4.2 0 7.8 2.2 8.2 7.1h-5c-.3-1.8-1.3-3-3.1-3-2.3 0-3.8 1.8-3.8 5.5v.6c0 3.8 1.3 5.5 3.8 5.5 1.8 0 3.2-1.3 3.5-3.4zm-19.4 0c-.4 4.2-3.3 7.3-8.4 7.3-5.2 0-9-3.2-9-9.6v-.2c0-6.4 4-9.8 9-9.8 4.2 0 7.8 2.2 8.2 7.1h-5c-.3-1.8-1.3-3-3.1-3-2.3 0-3.8 1.8-3.8 5.5v.6c0 3.8 1.3 5.5 3.8 5.5 1.8 0 3.1-1.3 3.5-3.4zm68.9-11.9h3.6v3.9h-3.6v8.9c0 1.4.7 2.1 1.9 2.1.6 0 1.2-.1 1.8-.3v4.1c-1 .3-2 .4-3 .4-4.1 0-6-1.9-6-5.7v-9.5h-2.2v-3.9h2.3v-3.5l5.2-2.2zm-21.2 0v2.8c1.1-2.1 3.3-3.3 5.7-3.2 3.4 0 5.7 2 5.7 6.6v12.6h-5.3v-11.8c0-2.2-.9-3.2-2.8-3.2-1.7-.1-3.2 1.3-3.3 3v12h-5.2v-18.8zm53.7-.1v3.5c.8-2.3 3.1-3.8 5.7-3.8v5.2c-3.6 0-5.7 1.1-5.7 4.2v9.7h-5.2v-18.8zm-127.2 10.8h-2.1c-2.6 0-3.9.7-3.9 2.4v.2c0 1.3.8 2.2 2.6 2.2s3.5-1 3.4-3zm147-3.5c-.1-2.8-1.4-4-3.5-4-1.7 0-3.2.9-3.6 4zm-87.1 0c-.1-2.8-1.4-4-3.5-4-1.6.1-3.1 1-3.5 4z"/></g></svg>

<?xml version="1.0" encoding="UTF-8" standalone="no"?>
<!DOCTYPE svg PUBLIC "-//W3C//DTD SVG 1.1//EN" "http://www.w3.org/Graphics/SVG/1.1/DTD/svg11.dtd">
<svg width="100%" height="100%" viewBox="0 0 560 400" version="1.1" xmlns="http://www.w3.org/2000/svg" xmlns:xlink="http://www.w3.org/1999/xlink" xml:space="preserve" xmlns:serif="http://www.serif.com/" style="fill-rule:evenodd;clip-rule:evenodd;stroke-linejoin:round;stroke-miterlimit:1.41421;">
    <g transform="matrix(2.08817,0,0,2.08817,105.116,151.45)">
        <path d="M97.2,6.5L106.6,10.2L97.2,13.7L97.2,18.7L113.3,12.2L113.3,8.2L97.2,1.7L97.2,6.5Z" style="fill:rgb(0,143,255);fill-rule:nonzero;"/>
        <path d="M78.1,38.5C77.6,42.1 74.6,44.8 69.7,44.8C64.3,44.8 60.6,41.6 60.6,35.3L60.6,34.9C60.6,28.6 64.5,25.1 69.6,25.1C74.3,25.1 78.2,27.8 78.2,34L78.2,36.2L66,36.2C66.2,39.6 67.6,40.9 69.9,40.9C71.5,41.1 73,40 73.2,38.5L78.1,38.5ZM165.2,38.5C164.6,42.1 161.7,44.8 156.8,44.8C151.4,44.8 147.7,41.6 147.7,35.3L147.7,34.9C147.7,28.6 151.6,25.1 156.7,25.1C161.4,25.1 165.3,27.7 165.3,33.9L165.1,33.9L165.1,36.3L152.9,36.3C153.1,39.7 154.5,41 156.8,41C158.4,41.1 159.9,40.1 160.3,38.5L165.2,38.5ZM7.8,31.3L2.8,31.3C3.1,27.1 6.4,25.1 10.9,25.1C15.3,25.1 18.6,27 18.7,31.8L18.7,44.4L13.6,44.4L13.6,42.2C12.4,43.8 10.5,44.8 8.4,44.7C5,44.7 2.2,43 2.2,39.2L2.2,39C2.2,34.3 6.2,32.8 11.1,32.8L13.4,32.8L13.4,31.9C13.4,30 12.5,28.9 10.6,28.9C9.2,28.8 7.9,29.8 7.8,31.2L7.8,31.3ZM120,25.5L120,37.5C120,39.7 120.8,40.7 122.7,40.7C124.4,40.8 125.9,39.4 126,37.7L126,37.2L126.1,25.5L131.4,25.5L131.4,44.3L126.1,44.3L126.1,41.5C125,43.6 122.9,44.8 120.6,44.7C117.2,44.7 114.7,42.6 114.7,38.2L114.7,25.5L120,25.5ZM58.4,37.4C58.1,41.6 55.2,44.7 50.1,44.7C44.9,44.7 41.1,41.5 41.1,35.1L41.1,34.9C41.1,28.5 45.1,25.1 50.1,25.1C54.3,25.1 57.9,27.3 58.3,32.2L53.3,32.2C53,30.4 52,29.2 50.2,29.2C47.9,29.2 46.4,31 46.4,34.7L46.4,35.3C46.4,39.1 47.7,40.8 50.2,40.8C52,40.8 53.4,39.5 53.7,37.4L58.4,37.4ZM39,37.4C38.6,41.6 35.7,44.7 30.6,44.7C25.4,44.7 21.6,41.5 21.6,35.1L21.6,34.9C21.6,28.5 25.6,25.1 30.6,25.1C34.8,25.1 38.4,27.3 38.8,32.2L33.8,32.2C33.5,30.4 32.5,29.2 30.7,29.2C28.4,29.2 26.9,31 26.9,34.7L26.9,35.3C26.9,39.1 28.2,40.8 30.7,40.8C32.5,40.8 33.8,39.5 34.2,37.4L39,37.4ZM107.9,25.5L111.5,25.5L111.5,29.4L107.9,29.4L107.9,38.3C107.9,39.7 108.6,40.4 109.8,40.4C110.4,40.4 111,40.3 111.6,40.1L111.6,44.2C110.6,44.5 109.6,44.6 108.6,44.6C104.5,44.6 102.6,42.7 102.6,38.9L102.6,29.4L100.4,29.4L100.4,25.5L102.7,25.5L102.7,22L107.9,19.8L107.9,25.5ZM86.7,25.5L86.7,28.3C87.8,26.2 90,25 92.4,25.1C95.8,25.1 98.1,27.1 98.1,31.7L98.1,44.3L92.8,44.3L92.8,32.5C92.8,30.3 91.9,29.3 90,29.3C88.3,29.2 86.8,30.6 86.7,32.3L86.7,44.3L81.5,44.3L81.5,25.5L86.7,25.5ZM140.4,25.4L140.4,28.9C141.2,26.6 143.5,25.1 146.1,25.1L146.1,30.3C142.5,30.3 140.4,31.4 140.4,34.5L140.4,44.2L135.2,44.2L135.2,25.4L140.4,25.4ZM13.2,36.2L11.1,36.2C8.5,36.2 7.2,36.9 7.2,38.6L7.2,38.8C7.2,40.1 8,41 9.8,41C11.6,41 13.3,40 13.2,38L13.2,36.2ZM160.2,32.7C160.1,29.9 158.8,28.7 156.7,28.7C155,28.7 153.5,29.6 153.1,32.7L160.2,32.7ZM73.1,32.7C73,29.9 71.7,28.7 69.6,28.7C68,28.8 66.5,29.7 66.1,32.7L73.1,32.7Z" style="fill-rule:nonzero;"/>
    </g>
</svg>
